X: 9524
T: Darkley Deacon, The
R: hornpipe
M: 4/4
K: Dmajor
|:(3A,B,C|DEFA dcde|fdBA B2 AF|DFAB AFDE|FEED E2 (3A,B,C|
DEFA dcde|fdBA B2 AF|DFAB AFEG|FDDC D2:|
|:DC|B,CDE FAdc|BABc B2 AF|DFAB AFDE|FEED E2 DC|
B,CDE FAdc|BABc B2 AF|DFAB AFEG|FDDC D2:|

